X: 2
T: The Flowers Of Red Hill
R: reel
M: 4/4
L: 1/8
K: Ador
eA~A2 g2fg|eA~A2 GABd|eA~A2 e3f|gedB G2Bd:|
ea~a2 ba~a2|ea~a2 egdg|ea~a2 ba~a2|gede g2fg|
ea~a2 ba~a2|ea~a2 g3a|bg~g2 af~f2|e3f gedg||
